assets/images/heart_filled.svg

<svg fill="none" height="20" viewBox="0 0 20 20" width="20" xmlns="http://www.w3.org/2000/svg"><path d="m13.7 2.58337c-1.5083 0-2.8583.73334-3.7 1.85834-.84167-1.125-2.19167-1.85834-3.7-1.85834-2.55833 0-4.63333 2.08334-4.63333 4.65834 0 .99166.15833 1.90833.43333 2.75829 1.31667 4.1667 5.375 6.6584 7.38333 7.3417.28334.1.74997.1 1.03337 0 2.0083-.6833 6.0666-3.175 7.3833-7.3417.275-.84996.4333-1.76663.4333-2.75829 0-2.575-2.075-4.65834-4.6333-4.65834z" fill="#8d8d8d"/></svg>

<svg width="20" height="20" viewBox="0 0 20 20" fill="none" xmlns="http://www.w3.org/2000/svg">
<path d="M13.7 2.58337C12.1917 2.58337 10.8417 3.31671 10 4.44171C9.15833 3.31671 7.80833 2.58337 6.3 2.58337C3.74167 2.58337 1.66667 4.66671 1.66667 7.24171C1.66667 8.23337 1.825 9.15004 2.1 10C3.41667 14.1667 7.475 16.6584 9.48333 17.3417C9.76667 17.4417 10.2333 17.4417 10.5167 17.3417C12.525 16.6584 16.5833 14.1667 17.9 10C18.175 9.15004 18.3333 8.23337 18.3333 7.24171C18.3333 4.66671 16.2583 2.58337 13.7 2.58337Z" fill="#8D8D8D"/>
</svg>
